!!!OTL: Wien und Berlin.
!!!OTL-incipit:JA MEIN GLUECK DACHT ICH
!!!COM: Nach dem Volksmunde
!!!ARE: Europa, Mitteleuropa, Deutschland
!!!SCT: F0111
!!!TXL: @@DE
!!!YEM: Copyright 1995, estate of Helmut Schaffrath.
**kern	**text
*ICvox	*
*clefG2	*
*M3/4	*
*k[f#]	*
*G:	*
!LO:TX:a:t=Munter.	!
{8.b/	1._Ja,
16a	mein
=1	=1
8gL	Glück,
8bJ	.
8dd	dacht'
8dd	ich,
8b/	würd'
8g	in
=2	=2
8f#L	Wien,
8aJ	.
8dd	dacht'
8dd}	ich,
{8cc	wie
8a	die
=3	=3
8f#	Blumen,
8a	.
8dd	dacht'
8dd	ich,
8cc	fröhlich
8a	.
=4	=4
8gL	blüh'n
8bJ	.
8dd	dacht'
8dd}	ich,
{8.b/	Roſen
16a	.
=5	=5
8g	würden,
8b/	.
8dd	dacht'
8dd	ich,
8b/	im-
8g	-mer-
=6	=6
(8f#L	-dar,
8aJ)	.
8dd	dacht'
8dd}	ich,
{8.cc	hier
16a	mir
=7	=7
8f#	lächeln,
8a	.
8dd	dacht'
8dd	ich
8.cc	's_iſt
16a	nicht
=8	=8
4g	wahr!
4r}	.
==	==
!!!AGN: Scherz - Lied
!!!ONB: ESAC (Essen Associative Code) Database: FINK
!!!AMT: simple triple
!!!AIN: vox
!!!EED: Helmut Schaffrath
!!!EEV: 1.0
!!!GTL:Volkslieder
!!@@COMMENT:"Aus den Berlinern in Wien."
!!@@END:
!!!source: Musikalischer Hausschatz der Deutschen. Eine Sammlung von über 1000 Liedern und Gesängen mit Singstimmen und Klavierbegleitung. Leipzig, Litterarisches Verlags-Haus.
!!!page: 68
!!!URL-scan: https://www.digitale-sammlungen.de/en/view/bsb11144622?page=76,77
!!!ENC: Anna Maria Matuszewska
!!!EEV: 2024/07/25
*-	*-
